assets/svg/opacity.svg

<svg xmlns="http://www.w3.org/2000/svg" xml:space="preserve" style="fill-rule:evenodd;clip-rule:evenodd;stroke-linejoin:round;stroke-miterlimit:2" viewBox="0 0 24 24"><path d="M19.142 14.716a7.168 7.168 0 0 1-7.132 6.494 7.167 7.167 0 0 1-7.132-6.494h14.264Z"/><path d="M17.66 8A8.02 8.02 0 0 1 20 13.64c0 2-.78 4.11-2.34 5.67a7.99 7.99 0 0 1-11.32 0C4.78 17.75 4 15.64 4 13.64S4.78 9.56 6.34 8L12 2.35 17.66 8Zm-.729.73L12 3.808 7.069 8.73a6.982 6.982 0 0 0-2.037 4.91c0 1.743.678 3.581 2.038 4.94a6.96 6.96 0 0 0 9.86 0 7.041 7.041 0 0 0 2.038-4.94 6.982 6.982 0 0 0-2.037-4.91Z" style="fill-rule:nonzero"/></svg>

<?xml version="1.0" encoding="UTF-8" standalone="no"?>
<!DOCTYPE svg PUBLIC "-//W3C//DTD SVG 1.1//EN" "http://www.w3.org/Graphics/SVG/1.1/DTD/svg11.dtd">
<svg width="100%" height="100%" viewBox="0 0 24 24" version="1.1" xmlns="http://www.w3.org/2000/svg" xmlns:xlink="http://www.w3.org/1999/xlink" xml:space="preserve" xmlns:serif="http://www.serif.com/" style="fill-rule:evenodd;clip-rule:evenodd;stroke-linejoin:round;stroke-miterlimit:2;">
    <path d="M19.142,14.716C18.804,18.356 15.738,21.21 12.01,21.21C8.282,21.21 5.215,18.356 4.878,14.716L19.142,14.716Z"/>
    <path d="M17.66,8C19.22,9.56 20,11.64 20,13.64C20,15.64 19.22,17.75 17.66,19.31C16.1,20.87 14.05,21.66 12,21.66C9.95,21.66 7.9,20.87 6.34,19.31C4.78,17.75 4,15.64 4,13.64C4,11.64 4.78,9.56 6.34,8L12,2.35L17.66,8ZM16.931,8.73L12,3.808L7.069,8.73C5.711,10.088 5.032,11.899 5.032,13.64C5.032,15.383 5.71,17.221 7.07,18.58C8.429,19.939 10.214,20.628 12,20.628C13.786,20.628 15.571,19.939 16.93,18.58C18.29,17.221 18.968,15.383 18.968,13.64C18.968,11.899 18.289,10.088 16.931,8.73Z" style="fill-rule:nonzero;"/>
</svg>
